packages/icons/svg/24/Services.svg

<svg width="24" height="24" viewBox="0 0 24 24" fill="none" xmlns="http://www.w3.org/2000/svg">
<path d="M2 3C2 2.44772 2.44772 2 3 2H7C7.55228 2 8 2.44772 8 3V7C8 7.55228 7.55228 8 7 8H3C2.44772 8 2 7.55228 2 7V3Z" fill="#858585"/>
<path d="M9 3C9 2.44772 9.44772 2 10 2H14C14.5523 2 15 2.44772 15 3V7C15 7.55228 14.5523 8 14 8H10C9.44772 8 9 7.55228 9 7V3Z" fill="#858585"/>
<path d="M17 2C16.4477 2 16 2.44772 16 3V7C16 7.55228 16.4477 8 17 8H21C21.5523 8 22 7.55228 22 7V3C22 2.44772 21.5523 2 21 2H17Z" fill="#858585"/>
<path d="M2 10C2 9.44772 2.44772 9 3 9H7C7.55228 9 8 9.44772 8 10V14C8 14.5523 7.55228 15 7 15H3C2.44772 15 2 14.5523 2 14V10Z" fill="#858585"/>
<path d="M10 9C9.44772 9 9 9.44772 9 10V14C9 14.5523 9.44772 15 10 15H14C14.5523 15 15 14.5523 15 14V10C15 9.44772 14.5523 9 14 9H10Z" fill="#858585"/>
<path d="M16 10C16 9.44772 16.4477 9 17 9H21C21.5523 9 22 9.44772 22 10V14C22 14.5523 21.5523 15 21 15H17C16.4477 15 16 14.5523 16 14V10Z" fill="#858585"/>
<path d="M3 16C2.44772 16 2 16.4477 2 17V21C2 21.5523 2.44772 22 3 22H7C7.55228 22 8 21.5523 8 21V17C8 16.4477 7.55228 16 7 16H3Z" fill="#858585"/>
<path d="M9 17C9 16.4477 9.44772 16 10 16H14C14.5523 16 15 16.4477 15 17V21C15 21.5523 14.5523 22 14 22H10C9.44772 22 9 21.5523 9 21V17Z" fill="#858585"/>
<path d="M17 16C16.4477 16 16 16.4477 16 17V21C16 21.5523 16.4477 22 17 22H21C21.5523 22 22 21.5523 22 21V17C22 16.4477 21.5523 16 21 16H17Z" fill="#858585"/>
</svg>

<svg width="24" height="24" fill="none" xmlns="http://www.w3.org/2000/svg" viewBox="0 0 24 24"><path d="M2 3a1 1 0 011-1h4a1 1 0 011 1v4a1 1 0 01-1 1H3a1 1 0 01-1-1V3zM9 3a1 1 0 011-1h4a1 1 0 011 1v4a1 1 0 01-1 1h-4a1 1 0 01-1-1V3zM17 2a1 1 0 00-1 1v4a1 1 0 001 1h4a1 1 0 001-1V3a1 1 0 00-1-1h-4zM2 10a1 1 0 011-1h4a1 1 0 011 1v4a1 1 0 01-1 1H3a1 1 0 01-1-1v-4zM10 9a1 1 0 00-1 1v4a1 1 0 001 1h4a1 1 0 001-1v-4a1 1 0 00-1-1h-4zM16 10a1 1 0 011-1h4a1 1 0 011 1v4a1 1 0 01-1 1h-4a1 1 0 01-1-1v-4zM3 16a1 1 0 00-1 1v4a1 1 0 001 1h4a1 1 0 001-1v-4a1 1 0 00-1-1H3zM9 17a1 1 0 011-1h4a1 1 0 011 1v4a1 1 0 01-1 1h-4a1 1 0 01-1-1v-4zM17 16a1 1 0 00-1 1v4a1 1 0 001 1h4a1 1 0 001-1v-4a1 1 0 00-1-1h-4z" fill="currentColor"></path></svg>
